X:1
T:Title
%%score { ( 1 3 ) | ( 2 4 ) }
L:1/8
Q:1/4=111
M:6/4
K:Ab
V:1 treble nm="Grand Piano"
V:3 treble 
V:2 bass 
V:4 bass 
V:1
 [Cc]2 [CB]2 [CA]2 [DB]2 [DA]2 [DF]2 | [DF]2 [CE]2 [_C=D]2 [=CF] [CE]3 [CE]2 | %2
w: Ralph~Howard~Pendleton * * * * *||
 F2 F2 F2 [=DF]2 [DG]2 [DA]2 | B6 _c6 | [Cc]2 [CB]2 [CA]2 [DB]2 [DA]2 [DF]2 | %5
w: |||
 [DF]2 [CE]2 [_C=D]2 [=CF] [CE]3 [CE]2 | [DF]2 [DF]2 [=DF]2 G2 F2 E2 | A12 | E2 E2 E2 B B3 E2 | %9
w: ||||
 [CE]2 [CE]2 [CE]2 [Ec] [Ec]3 [=Ec]2 | c2 B2 A2 [FB]2 [FA]2 [FB]2 | [=Ec]6 d6 | e2 d2 c2 c B3 c2 | %13
w: ||||
 [Fd]2 [FA]2 [FB]2 [=Ec] [Ec]3 [_Ec]2 | [Dd]2 [DF]2 [DA]2 G2 F2 E2 | A12 |] %16
w: |||
V:2
 [A,,E,]2 [A,,E,]2 [A,,E,]2 [A,,F,]2 [A,,F,]2 [A,,G,]2 | %1
 [A,,A,]2 [A,,E,]2 [A,,F,]2 [A,,E,] [A,,E,]3 [A,,A,]2 | %2
 [D,A,D]2 [D,A,D]2 [D,A,D]2 [B,,A,]2 [B,,G,]2 [B,,F,]2 | [E,G,D]12 | %4
 [A,,E,]2 [A,,E,]2 [A,,E,]2 [A,,F,]2 [A,,F,]2 [A,,G,]2 | %5
 [A,,A,]2 [A,,E,]2 [A,,F,]2 [A,,E,] [A,,E,]3 [A,,A,]2 | %6
 [D,A,]2 [D,A,]2 [B,,A,]2 [E,B,D]2 [E,A,D]2 [E,G,D]2 | E,4 F,2 E,6 | %8
 [E,G,D]2 [E,G,D]2 [E,G,D]2 [E,G,D] [E,G,D]3 [E,G,D]2 | %9
 [A,,A,]2 [A,,A,]2 [A,,A,]2 [A,,A,] [A,,A,]3 [C,G,]2 | %10
 [F,A,F]2 [F,DF]2 [F,CF]2 [D,F,]2 [D,F,]2 [D,F,]2 | z6[K:treble] E6 | %12
 [A,CE]2 [A,B,E]2 [A,E]2 [A,C_G] [A,CG]3 [A,EG]2 | [D,D]2 [D,A,]2 [D,G,]2 [C,G,] [C,G,]3 [F,=A,]2 | %14
 [B,,B,]2 [B,,B,]2 [B,,B,]2 [E,B,D]2 [E,A,D]2 [E,G,D]2 | A,,2- [A,,-G,]2 [A,,-F,]2 [A,,E,]6 |] %16
V:3
 x12 | x12 | x12 | x12 | x12 | x12 | x12 | C4 D2 C6 | x12 | x12 | x12 | x12 | x12 | x12 | x12 | %15
 C2 E2 D2 C6 |] %16
V:4
 x12 | x12 | x12 | x12 | x12 | x12 | x12 | A,,12 | x12 | x12 | x12 | [B,,G,]12[K:treble] | x12 | %13
 x12 | x12 | .E,6 z6 |] %16

